sources/design/Outline/j.svg

<svg:svg xmlns:cc="http://creativecommons.org/ns#" xmlns:dc="http://purl.org/dc/elements/1.1/" xmlns:inkscape="http://www.inkscape.org/namespaces/inkscape" xmlns:rdf="http://www.w3.org/1999/02/22-rdf-syntax-ns#" xmlns:sodipodi="http://sodipodi.sourceforge.net/DTD/sodipodi-0.dtd" xmlns:svg="http://www.w3.org/2000/svg" xml:space="preserve" width="1000" height="1000" version="1.1" style="clip-rule:evenodd;fill-rule:evenodd;image-rendering:optimizeQuality;shape-rendering:geometricPrecision;text-rendering:geometricPrecision" viewBox="0 0 1000 1000" id="svg10" sodipodi:docname="j.svg" inkscape:version="1.1.1 (3bf5ae0d25, 2021-09-20)"><svg:metadata id="metadata14"><rdf:RDF><cc:Work rdf:about=""><dc:format>image/svg+xml</dc:format><dc:type rdf:resource="http://purl.org/dc/dcmitype/StillImage" /></cc:Work></rdf:RDF></svg:metadata><sodipodi:namedview pagecolor="#ffffff" bordercolor="#666666" borderopacity="1" objecttolerance="10" gridtolerance="10" guidetolerance="10" inkscape:pageopacity="0" inkscape:pageshadow="2" inkscape:window-width="1920" inkscape:window-height="1009" id="namedview12" showgrid="false" inkscape:zoom="0.84890884" inkscape:cx="42.996372" inkscape:cy="275.64797" inkscape:window-x="0" inkscape:window-y="0" inkscape:window-maximized="1" inkscape:current-layer="svg10" showguides="true" inkscape:guide-bbox="true" inkscape:document-rotation="0" inkscape:pagecheckerboard="0"><sodipodi:guide position="0,1000" orientation="0,1" id="guide16" inkscape:label="" inkscape:locked="true" inkscape:color="rgb(0,0,255)" /><sodipodi:guide position="1763.3122,2036.1693" orientation="1000,0" id="guide18" /><sodipodi:guide position="0,200" orientation="0,1" id="guide20" inkscape:label="base" inkscape:locked="true" inkscape:color="rgb(0,0,255)" /><inkscape:grid type="xygrid" id="grid24" originx="-473.37552" originy="-489.69235" /><sodipodi:guide position="0,0" orientation="0,1" id="guide34" inkscape:label="bottom" inkscape:locked="true" inkscape:color="rgb(0,0,255)" /><sodipodi:guide position="225.05109,1693.3186" orientation="0,1" id="guide44" inkscape:label="" inkscape:locked="false" inkscape:color="rgb(0,0,255)" /><sodipodi:guide position="0,900" orientation="0,1" id="guide46" inkscape:label="" inkscape:locked="true" inkscape:color="rgb(0,0,255)" /><sodipodi:guide position="281.77716,591.49363" orientation="1,0" id="guide841" inkscape:label="width" />    <sodipodi:guide position="-483.67553,799.10296" orientation="0,-1" id="guide849" /></sodipodi:namedview>
 <svg:defs id="defs4"><inkscape:path-effect effect="fillet_chamfer" id="path-effect2686" is_visible="true" lpeversion="1" satellites_param="F,0,1,1,0,8.3546685,0,1 @ F,0,0,1,0,0,0,1 @ F,0,0,1,0,0,0,1 @ F,0,0,1,0,0,0,1 @ F,0,0,1,0,0,0,1 @ F,0,0,1,0,0,0,1 @ F,0,0,1,0,0,0,1 @ F,0,0,1,0,0,0,1 @ F,0,0,1,0,0,0,1 @ F,0,0,1,0,0,0,1 @ F,0,0,1,0,0,0,1 @ F,0,1,1,0,8.3546685,0,1 @ F,0,1,1,0,8.3546685,0,1 @ F,0,0,1,0,0,0,1 @ F,0,0,1,0,0,0,1 @ F,0,0,1,0,0,0,1 @ F,0,0,1,0,0,0,1 @ F,0,0,1,0,0,0,1 @ F,0,0,1,0,0,0,1 @ F,0,0,1,0,0,0,1 @ F,0,1,1,0,8.3546685,0,1 @ F,0,0,1,0,0,0,1 @ F,0,0,1,0,8.3546685,0,1" unit="px" method="auto" mode="F" radius="0" chamfer_steps="1" flexible="false" use_knot_distance="true" apply_no_radius="true" apply_with_radius="true" only_selected="false" hide_knots="false" /><inkscape:path-effect effect="fillet_chamfer" id="path-effect852" is_visible="true" lpeversion="1" satellites_param="F,0,0,1,0,23.702783,0,1 @ F,0,0,1,0,0,0,1 @ F,0,0,1,0,0,0,1 @ F,0,0,1,0,0,0,1 @ F,0,0,1,0,0,0,1 @ F,0,0,1,0,0,0,1 @ F,0,0,1,0,0,0,1 @ F,0,0,1,0,0,0,1 @ F,0,0,1,0,0,0,1 @ F,0,0,1,0,0,0,1 @ F,0,0,1,0,0,0,1 @ F,0,0,1,0,23.702783,0,1 @ F,0,0,1,0,23.702783,0,1 @ F,0,0,1,0,0,0,1 @ F,0,0,1,0,0,0,1 @ F,0,0,1,0,0,0,1 @ F,0,0,1,0,0,0,1 @ F,0,0,1,0,0,0,1 @ F,0,0,1,0,0,0,1 @ F,0,0,1,0,0,0,1 @ F,0,0,1,0,0,0,1 @ F,0,0,1,0,32.967062,0,1 @ F,0,0,1,0,0,0,1 @ F,0,0,1,0,23.702783,0,1" unit="px" method="auto" mode="F" radius="0" chamfer_steps="1" flexible="false" use_knot_distance="true" apply_no_radius="true" apply_with_radius="true" only_selected="true" hide_knots="false" /><inkscape:path-effect effect="fillet_chamfer" id="path-effect859" is_visible="true" lpeversion="1" satellites_param="F,0,1,1,0,27.898663,0,1 @ F,0,0,1,0,0,0,1 @ F,0,1,1,0,0,0,1 @ F,0,1,1,0,0,0,1 @ F,0,1,1,0,0,0,1 @ F,0,1,1,0,0,0,1 @ F,0,0,1,0,0,0,1 @ F,0,0,1,0,0,0,1 @ F,0,0,1,0,0,0,1 @ F,0,0,1,0,0,0,1 @ F,0,1,1,0,27.898663,0,1 @ F,0,1,1,0,27.898663,0,1 @ F,0,0,1,0,0,0,1 @ F,0,0,1,0,0,0,1 @ F,0,0,1,0,0,0,1 @ F,0,0,1,0,0,0,1 @ F,0,0,1,0,0,0,1 @ F,0,0,1,0,0,0,1 @ F,0,1,1,0,27.898663,0,1 @ F,0,0,1,0,0,0,1 @ F,0,1,1,0,27.898663,0,1" unit="px" method="auto" mode="F" radius="0" chamfer_steps="1" flexible="false" use_knot_distance="true" apply_no_radius="true" apply_with_radius="true" only_selected="true" hide_knots="false" /><inkscape:path-effect effect="spiro" id="path-effect889" is_visible="true" lpeversion="1" /><inkscape:path-effect effect="spiro" id="path-effect849" is_visible="true" lpeversion="1" /><inkscape:path-effect effect="spiro" id="path-effect851" is_visible="true" lpeversion="1" />
  <svg:style type="text/css" id="style2">
   
    .fil0 {fill:#EF7F1A;fill-rule:nonzero}
   
  </svg:style>
 <inkscape:path-effect effect="spiro" id="path-effect1214" is_visible="true" lpeversion="1" /><inkscape:path-effect effect="spiro" id="path-effect1195" is_visible="true" lpeversion="1" /><inkscape:path-effect effect="spiro" id="path-effect992" is_visible="true" lpeversion="1" /><inkscape:path-effect effect="spiro" id="path-effect1060" is_visible="true" lpeversion="1" /><inkscape:path-effect effect="spiro" id="path-effect1047" is_visible="true" lpeversion="1" /><inkscape:path-effect effect="spiro" id="path-effect1085" is_visible="true" lpeversion="1" /><inkscape:path-effect effect="spiro" id="path-effect1286" is_visible="true" lpeversion="1" /><inkscape:path-effect effect="spiro" id="path-effect860" is_visible="true" lpeversion="1" /><inkscape:path-effect effect="fillet_chamfer" id="path-effect862" is_visible="true" lpeversion="1" satellites_param="F,0,1,1,0,13.369101,0,1 @ F,0,1,1,0,13.369101,0,1 @ F,0,1,1,0,13.369101,0,1 @ F,0,1,1,0,13.369101,0,1" unit="px" method="auto" mode="F" radius="0" chamfer_steps="1" flexible="false" use_knot_distance="true" apply_no_radius="true" apply_with_radius="true" only_selected="true" hide_knots="false" /></svg:defs>
 
<svg:g id="path847"><svg:path style="color:#000000;clip-rule:nonzero;fill:#1a5fb4;fill-rule:nonzero;stroke-linecap:round;stroke-linejoin:round;-inkscape-stroke:none;paint-order:fill stroke markers;shape-rendering:auto" d="M 211.79687,170.60156 C 190.14319,170.69346000000002 168.49313,171.48048 146.88867000000002,172.96484 C 117.55084000000002,174.98054000000002 88.30162500000002,178.27941 59.251953000000015,182.84766000000002 C 38.57125100000002,186.09983000000003 24.772397000000012,203.83307000000002 26.427734000000015,224.53516000000002 L 34.521484000000015,325.78125 C 34.81419800000001,329.44201 35.343159000000014,333.66935 38.154297000000014,339.36523 C 40.965435000000014,345.06112 47.826990000000016,353.28294999999997 58.287109000000015,356.18164 C 68.74722900000002,359.08033 78.22129600000002,355.76072 83.40625000000001,352.66016 C 88.59120400000002,349.55959 91.29657600000002,346.47051 93.52929700000001,343.66211000000004 C 103.35292000000001,331.30558 116.99437000000002,321.54977 131.81055,316.12695 C 127.12589000000001,346.20922 123.95156,376.52577 122.55273000000001,406.94141 C 116.89942,529.86575 138.12452000000002,650.38525 161.63086,767.24805 C 167.66495,797.2468 172.23558000000003,824.0887200000001 167.5,845.9023400000001 C 166.3844,851.0411700000001 164.88236,855.2595100000001 163.19727,858.3300800000001 C 161.56118,861.3113400000001 159.59672,863.3734700000001 158.21289000000002,864.32617 C 156.80862000000002,865.29294 154.26823000000002,866.30118 151.27344000000002,866.6015600000001 C 148.17768,866.9120700000001 144.23520000000002,866.5715600000001 139.95312,865.39844 C 131.25871,863.01646 120.99107000000001,857.01957 109.11133000000001,848.97266 C 89.322635,835.56851 70.163567,821.22931 51.722656,806.02344 C 44.417735,800.0 31.266288,794.89214 18.011719,799.33203 C 4.7571492,803.77192 -2.7452119,815.91793 -4.8925781,825.19336 L -27.419922,922.4980499999999 C -31.882970999999998,941.7759399999999 -26.272185,956.5458799999999 -8.939453099999998,967.3691399999999 C 9.495150800000001,978.8804599999999 29.012857,988.6295299999999 49.296875,996.4472699999999 C 84.881644,1010.1620999999999 123.98171,1018.3014 164.05664000000002,1015.4784999999999 C 191.54196000000002,1013.5423999999999 221.3349,1006.2195999999999 246.39453000000003,986.6874999999999 C 271.22950000000003,967.3305099999999 285.80722000000003,940.2520699999999 293.75195,913.4023399999999 C 305.65594000000004,873.1720799999998 303.60543,832.3306499999999 297.54492000000005,794.9706999999999 C 291.5051,757.7382999999999 281.6386600000001,723.3959899999999 275.44922,690.4863299999998 C 259.3752,605.0196899999999 264.06541000000004,515.1465099999998 274.94922,425.3261699999998 C 283.4044,355.54841999999985 295.33859,286.1902999999998 310.69336000000004,217.5996099999998 C 315.18775000000005,197.52288999999982 297.44840000000005,173.6609399999998 276.72266,172.4140599999998 C 255.10671000000002,171.1136299999998 233.45056000000002,170.5096099999998 211.79687,170.6015599999998 L 211.79687,170.60156 M 212.05273000000003,230.60156 C 223.54647000000003,230.55276 235.03764,230.76655 246.52539000000002,231.13477 C 233.49094000000002,292.98207 222.98808000000002,355.36182 215.38477,418.10937 C 204.18155000000002,510.56573000000003 198.62119,606.59643 216.48437,701.57617 C 223.36359000000002,738.15344 233.03642000000002,772.01769 238.31836,804.57812 C 243.57961,837.01102 244.3744,868.80978 236.2168,896.37891 C 230.90993,914.31381 221.51132,930.01092 209.50977,939.36523 C 197.3525,948.84091 179.42422,954.24742 159.83984,955.62695 C 130.67252000000002,957.68152 100.05997,951.7092299999999 70.87500000000001,940.4609399999999 C 58.201155000000014,935.5762599999999 45.87574400000001,929.7593099999999 34.029297000000014,923.09961 L 44.753906000000015,876.77539 C 54.825130000000016,884.2939200000001 65.05672500000001,891.5996700000001 75.46289100000001,898.64844 C 88.38566000000002,907.40186 103.90180000000001,917.73211 124.09961000000001,923.26562 C 134.26365,926.05023 145.45186,927.48709 157.25977,926.30273 C 169.16864,925.10825 181.3032,921.27301 192.23633,913.74609 C 202.84613000000002,906.44177 210.42757,896.98119 215.79687,887.19727 C 221.11717000000002,877.50265 224.16122000000001,867.72167 226.13477,858.63086 C 234.3845,820.62992 226.48697,785.4232499999999 220.45117,755.41602 C 197.15252999999998,639.58579 177.23718,523.87595 182.48827999999997,409.69727 C 184.37981999999997,368.56817 189.53025999999997,327.58018 197.87304999999998,287.26171999999997 A 30.003,30.003 0.0 0,0 170.41015999999996,251.24413999999996 C 153.48809999999997,250.16236999999995 136.48256999999995,252.03723999999997 120.20312999999996,256.78124999999994 C 109.70443999999996,259.84067999999996 99.66106099999996,264.10581999999994 90.20312499999996,269.36718999999994 L 87.816406,239.52344 C 108.8081,236.66095 129.86451,234.27637 151.0,232.82422 C 171.3185,231.42821 191.68502,230.68805 212.05273,230.60156 L 212.05273000000003,230.60156" id="path708" /></svg:g><svg:g id="path858"><svg:path style="color:#000000;fill:#1a5fb4;stroke-linecap:round;stroke-linejoin:round;-inkscape-stroke:none;paint-order:fill stroke markers;fill-rule:nonzero" d="M 206.43945,10.324219 C 204.93354,10.251869 203.40897999999999,10.264109 201.87305,10.365229 L 117.53906,15.917964 C 94.275538,17.449652 75.862011,37.762793 76.617187,61.064453 L 79.035156,135.66406 C 79.803163,159.36162000000002 100.4985,178.49655 124.18359000000001,177.41016000000002 L 199.10156,173.97266000000002 C 221.78053,172.93241000000003 240.48194,154.46848000000003 241.8125,131.80469000000002 L 246.34961,54.52734400000003 C 247.70279000000002,31.478214000000026 229.02821,11.409426000000025 206.43945000000002,10.324219000000028 L 206.43945,10.324219 M 185.24414,71.589844 L 182.71679999999998,114.66211 L 138.45117,116.69141 L 137.09375,74.761719 L 185.24414,71.589844" id="path714" /></svg:g></svg:svg>

<svg:svg xmlns:cc="http://creativecommons.org/ns#" xmlns:dc="http://purl.org/dc/elements/1.1/" xmlns:inkscape="http://www.inkscape.org/namespaces/inkscape" xmlns:rdf="http://www.w3.org/1999/02/22-rdf-syntax-ns#" xmlns:sodipodi="http://sodipodi.sourceforge.net/DTD/sodipodi-0.dtd" xmlns:svg="http://www.w3.org/2000/svg" xml:space="preserve" width="1000" height="1000" version="1.1" style="clip-rule:evenodd;fill-rule:evenodd;image-rendering:optimizeQuality;shape-rendering:geometricPrecision;text-rendering:geometricPrecision" viewBox="0 0 1000 1000" id="svg10" sodipodi:docname="j.svg" inkscape:version="1.1.1 (3bf5ae0d25, 2021-09-20)"><svg:metadata id="metadata14"><rdf:RDF><cc:Work rdf:about=""><dc:format>image/svg+xml</dc:format><dc:type rdf:resource="http://purl.org/dc/dcmitype/StillImage" /></cc:Work></rdf:RDF></svg:metadata><sodipodi:namedview pagecolor="#ffffff" bordercolor="#666666" borderopacity="1" objecttolerance="10" gridtolerance="10" guidetolerance="10" inkscape:pageopacity="0" inkscape:pageshadow="2" inkscape:window-width="1920" inkscape:window-height="1009" id="namedview12" showgrid="false" inkscape:zoom="0.84890884" inkscape:cx="42.996372" inkscape:cy="275.64797" inkscape:window-x="0" inkscape:window-y="0" inkscape:window-maximized="1" inkscape:current-layer="svg10" showguides="true" inkscape:guide-bbox="true" inkscape:document-rotation="0" inkscape:pagecheckerboard="0"><sodipodi:guide position="0,1000" orientation="0,1" id="guide16" inkscape:label="" inkscape:locked="true" inkscape:color="rgb(0,0,255)" /><sodipodi:guide position="1763.3122,2036.1693" orientation="1000,0" id="guide18" /><sodipodi:guide position="0,200" orientation="0,1" id="guide20" inkscape:label="base" inkscape:locked="true" inkscape:color="rgb(0,0,255)" /><inkscape:grid type="xygrid" id="grid24" originx="-473.37552" originy="-489.69235" /><sodipodi:guide position="0,0" orientation="0,1" id="guide34" inkscape:label="bottom" inkscape:locked="true" inkscape:color="rgb(0,0,255)" /><sodipodi:guide position="225.05109,1693.3186" orientation="0,1" id="guide44" inkscape:label="" inkscape:locked="false" inkscape:color="rgb(0,0,255)" /><sodipodi:guide position="0,900" orientation="0,1" id="guide46" inkscape:label="" inkscape:locked="true" inkscape:color="rgb(0,0,255)" /><sodipodi:guide position="281.77716,591.49363" orientation="1,0" id="guide841" inkscape:label="width" />    <sodipodi:guide position="-483.67553,799.10296" orientation="0,-1" id="guide849" /></sodipodi:namedview>
 <svg:defs id="defs4"><inkscape:path-effect effect="fillet_chamfer" id="path-effect2686" is_visible="true" lpeversion="1" satellites_param="F,0,1,1,0,8.3546685,0,1 @ F,0,0,1,0,0,0,1 @ F,0,0,1,0,0,0,1 @ F,0,0,1,0,0,0,1 @ F,0,0,1,0,0,0,1 @ F,0,0,1,0,0,0,1 @ F,0,0,1,0,0,0,1 @ F,0,0,1,0,0,0,1 @ F,0,0,1,0,0,0,1 @ F,0,0,1,0,0,0,1 @ F,0,0,1,0,0,0,1 @ F,0,1,1,0,8.3546685,0,1 @ F,0,1,1,0,8.3546685,0,1 @ F,0,0,1,0,0,0,1 @ F,0,0,1,0,0,0,1 @ F,0,0,1,0,0,0,1 @ F,0,0,1,0,0,0,1 @ F,0,0,1,0,0,0,1 @ F,0,0,1,0,0,0,1 @ F,0,0,1,0,0,0,1 @ F,0,1,1,0,8.3546685,0,1 @ F,0,0,1,0,0,0,1 @ F,0,0,1,0,8.3546685,0,1" unit="px" method="auto" mode="F" radius="0" chamfer_steps="1" flexible="false" use_knot_distance="true" apply_no_radius="true" apply_with_radius="true" only_selected="false" hide_knots="false" /><inkscape:path-effect effect="fillet_chamfer" id="path-effect852" is_visible="true" lpeversion="1" satellites_param="F,0,0,1,0,23.702783,0,1 @ F,0,0,1,0,0,0,1 @ F,0,0,1,0,0,0,1 @ F,0,0,1,0,0,0,1 @ F,0,0,1,0,0,0,1 @ F,0,0,1,0,0,0,1 @ F,0,0,1,0,0,0,1 @ F,0,0,1,0,0,0,1 @ F,0,0,1,0,0,0,1 @ F,0,0,1,0,0,0,1 @ F,0,0,1,0,0,0,1 @ F,0,0,1,0,23.702783,0,1 @ F,0,0,1,0,23.702783,0,1 @ F,0,0,1,0,0,0,1 @ F,0,0,1,0,0,0,1 @ F,0,0,1,0,0,0,1 @ F,0,0,1,0,0,0,1 @ F,0,0,1,0,0,0,1 @ F,0,0,1,0,0,0,1 @ F,0,0,1,0,0,0,1 @ F,0,0,1,0,0,0,1 @ F,0,0,1,0,32.967062,0,1 @ F,0,0,1,0,0,0,1 @ F,0,0,1,0,23.702783,0,1" unit="px" method="auto" mode="F" radius="0" chamfer_steps="1" flexible="false" use_knot_distance="true" apply_no_radius="true" apply_with_radius="true" only_selected="true" hide_knots="false" /><inkscape:path-effect effect="fillet_chamfer" id="path-effect859" is_visible="true" lpeversion="1" satellites_param="F,0,1,1,0,27.898663,0,1 @ F,0,0,1,0,0,0,1 @ F,0,1,1,0,0,0,1 @ F,0,1,1,0,0,0,1 @ F,0,1,1,0,0,0,1 @ F,0,1,1,0,0,0,1 @ F,0,0,1,0,0,0,1 @ F,0,0,1,0,0,0,1 @ F,0,0,1,0,0,0,1 @ F,0,0,1,0,0,0,1 @ F,0,1,1,0,27.898663,0,1 @ F,0,1,1,0,27.898663,0,1 @ F,0,0,1,0,0,0,1 @ F,0,0,1,0,0,0,1 @ F,0,0,1,0,0,0,1 @ F,0,0,1,0,0,0,1 @ F,0,0,1,0,0,0,1 @ F,0,0,1,0,0,0,1 @ F,0,1,1,0,27.898663,0,1 @ F,0,0,1,0,0,0,1 @ F,0,1,1,0,27.898663,0,1" unit="px" method="auto" mode="F" radius="0" chamfer_steps="1" flexible="false" use_knot_distance="true" apply_no_radius="true" apply_with_radius="true" only_selected="true" hide_knots="false" /><inkscape:path-effect effect="spiro" id="path-effect889" is_visible="true" lpeversion="1" /><inkscape:path-effect effect="spiro" id="path-effect849" is_visible="true" lpeversion="1" /><inkscape:path-effect effect="spiro" id="path-effect851" is_visible="true" lpeversion="1" />
  <svg:style type="text/css" id="style2">
   
    .fil0 {fill:#EF7F1A;fill-rule:nonzero}
   
  </svg:style>
 <inkscape:path-effect effect="spiro" id="path-effect1214" is_visible="true" lpeversion="1" /><inkscape:path-effect effect="spiro" id="path-effect1195" is_visible="true" lpeversion="1" /><inkscape:path-effect effect="spiro" id="path-effect992" is_visible="true" lpeversion="1" /><inkscape:path-effect effect="spiro" id="path-effect1060" is_visible="true" lpeversion="1" /><inkscape:path-effect effect="spiro" id="path-effect1047" is_visible="true" lpeversion="1" /><inkscape:path-effect effect="spiro" id="path-effect1085" is_visible="true" lpeversion="1" /><inkscape:path-effect effect="spiro" id="path-effect1286" is_visible="true" lpeversion="1" /><inkscape:path-effect effect="spiro" id="path-effect860" is_visible="true" lpeversion="1" /><inkscape:path-effect effect="fillet_chamfer" id="path-effect862" is_visible="true" lpeversion="1" satellites_param="F,0,1,1,0,13.369101,0,1 @ F,0,1,1,0,13.369101,0,1 @ F,0,1,1,0,13.369101,0,1 @ F,0,1,1,0,13.369101,0,1" unit="px" method="auto" mode="F" radius="0" chamfer_steps="1" flexible="false" use_knot_distance="true" apply_no_radius="true" apply_with_radius="true" only_selected="true" hide_knots="false" /></svg:defs>
 
<svg:g id="path847"><svg:path style="color:#000000;clip-rule:nonzero;fill:#1a5fb4;fill-rule:nonzero;stroke-linecap:round;stroke-linejoin:round;-inkscape-stroke:none;shape-rendering:auto" d="m 211.79687,170.60156 c -21.65368,0.0919 -43.30374,0.87892 -64.9082,2.36328 -29.33783,2.0157 -58.587045,5.31457 -87.636717,9.88282 -20.680702,3.25217 -34.479556,20.98541 -32.824219,41.6875 l 8.09375,101.24609 c 0.292714,3.66076 0.821675,7.8881 3.632813,13.58398 2.811138,5.69589 9.672693,13.91772 20.132812,16.81641 10.46012,2.89869 19.934187,-0.42092 25.119141,-3.52148 5.184954,-3.10057 7.890326,-6.18965 10.123047,-8.99805 9.823623,-12.35653 23.465073,-22.11234 38.281253,-27.53516 -4.68466,30.08227 -7.85899,60.39882 -9.25782,90.81446 -5.65331,122.92434 15.57179,243.44384 39.07813,360.30664 6.03409,29.99875 10.60472,56.84067 5.86914,78.65429 -1.1156,5.13883 -2.61764,9.35717 -4.30273,12.42774 -1.63609,2.98126 -3.60055,5.04339 -4.98438,5.99609 -1.40427,0.96677 -3.94466,1.97501 -6.93945,2.27539 -3.09576,0.31051 -7.03824,-0.03 -11.32032,-1.20312 -8.69441,-2.38198 -18.96205,-8.37887 -30.84179,-16.42578 C 89.322635,835.56851 70.163567,821.22931 51.722656,806.02344 44.417735,800 31.266288,794.89214 18.011719,799.33203 4.7571492,803.77192 -2.7452119,815.91793 -4.8925781,825.19336 l -22.5273439,97.30469 c -4.463049,19.27789 1.147737,34.04783 18.4804689,44.87109 18.4346039,11.51132 37.9523101,21.26039 58.2363281,29.07813 35.584769,13.71483 74.684835,21.85413 114.759765,19.03123 27.48532,-1.9361 57.27826,-9.2589 82.33789,-28.791 24.83497,-19.35699 39.41269,-46.43543 47.35742,-73.28516 11.90399,-40.23026 9.85348,-81.07169 3.79297,-118.43164 -6.03982,-37.2324 -15.90626,-71.57471 -22.0957,-104.48437 -16.07402,-85.46664 -11.38381,-175.33982 -0.5,-265.16016 8.45518,-69.77775 20.38937,-139.13587 35.74414,-207.72656 4.49439,-20.07672 -13.24496,-43.93867 -33.9707,-45.18555 -21.61595,-1.30043 -43.2721,-1.90445 -64.92579,-1.8125 z m 0.25586,60 c 11.49374,-0.0488 22.98491,0.16499 34.47266,0.53321 -13.03445,61.8473 -23.53731,124.22705 -31.14062,186.9746 -11.20322,92.45636 -16.76358,188.48706 1.0996,283.4668 6.87922,36.57727 16.55205,70.44152 21.83399,103.00195 5.26125,32.4329 6.05604,64.23166 -2.10156,91.80079 -5.30687,17.9349 -14.70548,33.63201 -26.70703,42.98632 -12.15727,9.47568 -30.08555,14.88219 -49.66993,16.26172 -29.16732,2.05457 -59.77987,-3.91772 -88.96484,-15.16601 -12.673845,-4.88468 -24.999256,-10.70163 -36.845703,-17.36133 l 10.724609,-46.32422 c 10.071224,7.51853 20.302819,14.82428 30.708985,21.87305 12.922769,8.75342 28.438909,19.08367 48.636719,24.61718 10.16404,2.78461 21.35225,4.22147 33.16016,3.03711 11.90887,-1.19448 24.04343,-5.02972 34.97656,-12.55664 10.6098,-7.30432 18.19124,-16.7649 23.56054,-26.54882 5.3203,-9.69462 8.36435,-19.4756 10.3379,-28.56641 8.24973,-38.00094 0.3522,-73.20761 -5.6836,-103.21484 -23.29864,-115.83023 -43.21399,-231.54007 -37.96289,-345.71875 1.89154,-41.1291 7.04198,-82.11709 15.38477,-122.43555 a 30.003,30.003 0 0 0 -27.46289,-36.01758 c -16.92206,-1.08177 -33.92759,0.7931 -50.20703,5.53711 -10.49869,3.05943 -20.542069,7.32457 -30.000005,12.58594 L 87.816406,239.52344 C 108.8081,236.66095 129.86451,234.27637 151,232.82422 c 20.3185,-1.39601 40.68502,-2.13617 61.05273,-2.22266 z" id="path708" /></svg:g><svg:g id="path858"><svg:path style="color:#000000;fill:#1a5fb4;stroke-linecap:round;stroke-linejoin:round;-inkscape-stroke:none;fill-rule:nonzero" d="m 206.43945,10.324219 c -1.50591,-0.07235 -3.03047,-0.06011 -4.5664,0.04101 l -84.33399,5.552735 C 94.275538,17.449652 75.862011,37.762793 76.617187,61.064453 l 2.417969,74.599607 c 0.768007,23.69756 21.463344,42.83249 45.148434,41.7461 l 74.91797,-3.4375 c 22.67897,-1.04025 41.38038,-19.50418 42.71094,-42.16797 l 4.53711,-77.277346 c 1.35318,-23.04913 -17.3214,-43.117918 -39.91016,-44.203125 z m -21.19531,61.265625 -2.52734,43.072266 -44.26563,2.0293 -1.35742,-41.929691 z" id="path714" /></svg:g></svg:svg>
